Obsidian-SemiLight/actions/16s/dialog-input-devices.svg

<svg viewBox="0 0 16 16" xmlns="http://www.w3.org/2000/svg"><path d="m4 2v12h9v-12zm1 1h3v4h1v-4h3v10h-7z" fill="#4d4d4d"/></svg>

<svg xmlns="http://www.w3.org/2000/svg" viewBox="0 0 16 16">
  <defs id="defs3051">
    <style type="text/css" id="current-color-scheme">
      .ColorScheme-Text {
        color:#4d4d4d;
      }
      </style>
  </defs>
 <path style="fill:currentColor;fill-opacity:1;stroke:none" 
     d="M 4 2 L 4 14 L 13 14 L 13 2 L 4 2 z M 5 3 L 8 3 L 8 7 L 9 7 L 9 3 L 12 3 L 12 13 L 5 13 L 5 3 z "
     class="ColorScheme-Text"
     />
</svg>
